;FLAVOR:UltiGCode
;TIME:1212
;MATERIAL:1577
;MATERIAL2:0
;NOZZLE_DIAMETER:0.4
;Generated with Cura_SteamEngine 3.2.1
M82 ;absolute extrusion mode

;LAYER_COUNT:130
;LAYER:0
M107
G0 F4500 X93.718 Y101.984 Z0.27
;TYPE:SKIRT
G1 F1800 X94.078 Y101.655 E0.04609
G1 X94.487 Y101.39 E0.09214
G1 X95.01 Y101.171 E0.14572
G1 X95.286 Y101.085 E0.17304
G1 X95.762 Y100.978 E0.21915
G1 X96.219 Y100.95 E0.26241
G1 X126.179 Y101.434 E3.094
G1 X126.457 Y101.343 E3.12165
G1 X126.939 Y101.268 E3.16774
G1 X127.426 Y101.274 E3.21377
G1 X127.971 Y101.377 E3.26618
G1 X128.312 Y101.475 E3.29971
G1 X128.768 Y101.647 E3.34577
G1 X129.189 Y101.892 E3.3918
G1 X129.565 Y102.202 E3.43785
G1 X129.885 Y102.57 E3.48393
G1 X130.141 Y102.985 E3.53001
G1 X130.247 Y103.217 E3.55412
G1 X130.386 Y103.56 E3.58909
G1 X130.532 Y104.025 E3.63515
G1 X130.599 Y104.508 E3.68123
G1 X130.587 Y104.995 E3.72726
G1 X130.422 Y105.702 E3.79587
G1 X129.937 Y107.025 E3.92903
G1 X129.678 Y120.748 E5.22608
G1 X129.629 Y121.233 E5.27215
G1 X129.502 Y121.703 E5.31816
G1 X129.299 Y122.147 E5.36429
G1 X129.027 Y122.551 E5.41032
G1 X128.692 Y122.905 E5.45638
G1 X128.473 Y123.084 E5.4831
G1 X128.304 Y123.209 E5.50297
G1 X127.89 Y123.466 E5.54902
G1 X127.439 Y123.651 E5.59508
G1 X126.964 Y123.761 E5.64116
G1 X126.512 Y123.792 E5.68397
G1 X125.855 Y123.787 E5.74606
G1 X125.227 Y123.715 E5.8058
G1 X124.658 Y123.587 E5.86091
G1 X122.234 Y123.582 E6.08998
G1 X122.15 Y123.581 E6.09792
G1 X95.65 Y122.776 E8.60332
G1 X95.165 Y122.721 E8.64945
G1 X94.696 Y122.588 E8.69552
G1 X94.255 Y122.38 E8.74159
G1 X93.995 Y122.211 E8.7709
G1 X93.752 Y122.035 E8.79925
G1 X93.382 Y121.718 E8.8453
G1 X93.069 Y121.345 E8.89131
G1 X92.821 Y120.925 E8.9374
G1 X92.599 Y120.298 E9.00026
G1 X92.535 Y120.022 E9.02703
G1 X92.464 Y119.54 E9.07307
G1 X92.459 Y119.277 E9.09793
G1 X92.758 Y107.026 E10.256
G1 X92.773 Y106.787 E10.27863
G1 X92.814 Y106.402 E10.31521
G1 X92.751 Y105.651 E10.38643
G1 X92.748 Y105.195 E10.42953
G1 X92.831 Y104.016 E10.54122
G1 X92.905 Y103.534 E10.5873
G1 X93.085 Y103.007 E10.63993
G1 X93.181 Y102.793 E10.66209
G1 X93.416 Y102.366 E10.70815
G1 X93.718 Y101.984 E10.75417
G0 F4500 X94.012 Y102.182
G1 F1800 X94.359 Y101.883 E10.79745
G1 X94.752 Y101.648 E10.84072
G1 X95.114 Y101.505 E10.87751
G1 X95.39 Y101.419 E10.90482
G1 X95.837 Y101.321 E10.94807
G1 X96.213 Y101.3 E10.98366
G1 X126.231 Y101.784 E13.82073
G1 X126.566 Y101.677 E13.85396
G1 X127.019 Y101.614 E13.89718
G1 X127.477 Y101.632 E13.94049
G1 X127.874 Y101.713 E13.97878
G1 X128.215 Y101.811 E14.01231
G1 X128.642 Y101.975 E14.05554
G1 X129.035 Y102.212 E14.09891
G1 X129.38 Y102.512 E14.14211
G1 X129.668 Y102.868 E14.18538
G1 X129.923 Y103.348 E14.23675
G1 X130.062 Y103.691 E14.27172
G1 X130.196 Y104.129 E14.31501
G1 X130.252 Y104.583 E14.35823
G1 X130.229 Y105.04 E14.40148
G1 X130.093 Y105.581 E14.45419
G1 X129.589 Y106.956 E14.59258
G1 X129.329 Y120.741 E15.8955
G1 X129.28 Y121.197 E15.93884
G1 X129.153 Y121.637 E15.98211
G1 X128.952 Y122.048 E16.02535
G1 X128.682 Y122.418 E16.06863
G1 X128.265 Y122.802 E16.1222
G1 X128.096 Y122.927 E16.14207
G1 X127.706 Y123.167 E16.18534
G1 X127.28 Y123.334 E16.22858
G1 X126.831 Y123.425 E16.27187
G1 X126.515 Y123.442 E16.30178
G1 X125.858 Y123.437 E16.36387
G1 X125.303 Y123.373 E16.41666
G1 X124.698 Y123.237 E16.47526
G1 X122.234 Y123.232 E16.70811
G1 X122.16 Y123.231 E16.7151
G1 X95.66 Y122.426 E19.22051
G1 X95.206 Y122.372 E19.26372
G1 X94.767 Y122.24 E19.30704
G1 X94.2 Y121.928 E19.36819
G1 X93.957 Y121.752 E19.39655
G1 X93.611 Y121.452 E19.43982
G1 X93.323 Y121.097 E19.48302
G1 X93.1 Y120.697 E19.5263
G1 X92.94 Y120.219 E19.57393
G1 X92.876 Y119.943 E19.60071
G1 X92.809 Y119.286 E19.66312
G1 X93.108 Y107.035 E20.82118
G1 X93.121 Y106.824 E20.84116
G1 X93.165 Y106.404 E20.88107
G1 X93.1 Y105.622 E20.95522
G1 X93.097 Y105.22 E20.99321
G1 X93.18 Y104.041 E21.1049
G1 X93.252 Y103.589 E21.14815
G1 X93.404 Y103.151 E21.19197
G1 X93.5 Y102.937 E21.21413
G1 X93.723 Y102.537 E21.25741
G1 X94.012 Y102.182 E21.30067
G0 F4500 X94.305 Y102.384
G1 F1800 X94.636 Y102.116 E21.34091
G1 X95.012 Y101.914 E21.38125
G1 X95.218 Y101.839 E21.40197
G1 X95.494 Y101.753 E21.42928
G1 X95.911 Y101.665 E21.46956
G1 X96.208 Y101.65 E21.49766
G1 X126.278 Y102.135 E24.33965
G1 X126.672 Y102.012 E24.37865
G1 X127.095 Y101.962 E24.4189
G1 X127.521 Y101.992 E24.45926
G1 X127.777 Y102.05 E24.48406
G1 X128.118 Y102.148 E24.51759
G1 X128.515 Y102.303 E24.55787
G1 X128.876 Y102.53 E24.59817
G1 X129.188 Y102.82 E24.63842
G1 X129.441 Y103.163 E24.6787
G1 X129.598 Y103.48 E24.71213
G1 X129.737 Y103.823 E24.7471
G1 X129.86 Y104.231 E24.78737
G1 X129.904 Y104.655 E24.82765
G1 X129.868 Y105.079 E24.86786
G1 X129.765 Y105.46 E24.90516
G1 X129.24 Y106.892 E25.04929
G1 X128.979 Y120.735 E26.35769
G1 X128.931 Y121.158 E26.39792
G1 X128.805 Y121.565 E26.43818
G1 X128.605 Y121.942 E26.47851
G1 X128.339 Y122.274 E26.51871
G1 X128.057 Y122.521 E26.55414
G1 X127.888 Y122.646 E26.574
G1 X127.523 Y122.866 E26.61428
G1 X127.124 Y123.015 E26.65453
G1 X126.518 Y123.092 E26.71225
G1 X125.861 Y123.087 E26.77434
G1 X125.38 Y123.032 E26.82009
G1 X124.736 Y122.887 E26.88247
G1 X122.235 Y122.882 E27.11882
G1 X122.171 Y122.881 E27.12487
G1 X95.671 Y122.076 E29.63027
G1 X95.248 Y122.023 E29.67056
G1 X94.842 Y121.892 E29.71087
G1 X94.406 Y121.644 E29.75827
G1 X94.163 Y121.468 E29.78663
G1 X93.842 Y121.187 E29.82694
G1 X93.58 Y120.851 E29.86721
G1 X93.385 Y120.472 E29.90749
G1 X93.281 Y120.14 E29.94036
G1 X93.217 Y119.864 E29.96714
G1 X93.159 Y119.294 E30.02128
G1 X93.458 Y107.043 E31.17934
G1 X93.47 Y106.86 E31.19668
G1 X93.517 Y106.412 E31.23924
G1 X93.449 Y105.593 E31.31691
G1 X93.447 Y105.244 E31.34989
G1 X93.53 Y104.065 E31.46158
G1 X93.599 Y103.645 E31.5018
G1 X93.723 Y103.294 E31.53698
G1 X93.819 Y103.08 E31.55914
G1 X94.029 Y102.709 E31.59943
G1 X94.305 Y102.384 E31.63972
G0 F4500 X94.595 Y102.591
G1 F1800 X94.91 Y102.357 E31.6768
G1 X95.322 Y102.173 E31.71945
G1 X95.598 Y102.087 E31.74676
G1 X95.982 Y102.009 E31.78379
G1 X96.202 Y102 E31.8046
G1 X126.344 Y102.486 E34.65339
G1 X126.402 Y102.462 E34.65932
G1 X126.776 Y102.347 E34.6963
G1 X127.167 Y102.311 E34.7334
G1 X127.681 Y102.386 E34.78249
G1 X128.022 Y102.484 E34.81602
G1 X128.385 Y102.63 E34.85299
G1 X128.712 Y102.847 E34.89008
G1 X128.988 Y103.125 E34.9271
G1 X129.274 Y103.611 E34.98039
G1 X129.413 Y103.954 E35.01536
G1 X129.523 Y104.33 E35.05238
G1 X129.553 Y104.721 E35.08944
G1 X129.505 Y105.11 E35.12648
G1 X129.436 Y105.34 E35.14917
G1 X128.891 Y106.826 E35.29875
G1 X128.629 Y120.728 E36.61272
G1 X128.581 Y121.117 E36.64976
G1 X128.456 Y121.489 E36.68684
G1 X128.259 Y121.827 E36.72381
G1 X127.849 Y122.24 E36.77881
G1 X127.68 Y122.365 E36.79867
G1 X127.343 Y122.564 E36.83566
G1 X126.972 Y122.692 E36.87275
G1 X126.52 Y122.742 E36.91572
G1 X125.863 Y122.737 E36.97781
G1 X125.457 Y122.69 E37.01643
G1 X124.777 Y122.538 E37.08228
G1 X122.236 Y122.532 E37.3224
G1 X122.182 Y122.531 E37.32751
G1 X95.682 Y121.726 E39.83291
G1 X95.293 Y121.674 E39.87
G1 X94.923 Y121.545 E39.90703
G1 X94.611 Y121.361 E39.94126
G1 X94.368 Y121.185 E39.96961
G1 X94.075 Y120.924 E40.00669
G1 X93.842 Y120.609 E40.04372
G1 X93.677 Y120.254 E40.08071
G1 X93.622 Y120.061 E40.09968
G1 X93.558 Y119.785 E40.12645
G1 X93.509 Y119.303 E40.17223
G1 X93.808 Y107.052 E41.3303
G1 X93.818 Y106.897 E41.34498
G1 X93.869 Y106.414 E41.39087
G1 X93.798 Y105.564 E41.47148
G1 X93.796 Y105.269 E41.49936
G1 X93.879 Y104.09 E41.61105
G1 X93.946 Y103.704 E41.64807
G1 X94.043 Y103.437 E41.67492
G1 X94.139 Y103.223 E41.69708
G1 X94.335 Y102.884 E41.73408
G1 X94.595 Y102.591 E41.7711
G0 F4500 X94.638 Y103.061
G1 F1800 X94.883 Y102.804 E41.80466
G1 X95.178 Y102.609 E41.83807
G1 X95.426 Y102.507 E41.86342
G1 X95.702 Y102.421 E41.89073
G1 X96.196 Y102.35 E41.9379
G1 X126.413 Y102.838 E44.79378
G1 X126.538 Y102.785 E44.80661
G1 X126.878 Y102.685 E44.8401
G1 X127.231 Y102.663 E44.87352
G1 X127.584 Y102.722 E44.90734
G1 X127.925 Y102.82 E44.94087
G1 X128.252 Y102.956 E44.97434
G1 X128.541 Y103.161 E45.00782
G1 X128.777 Y103.426 E45.04136
G1 X128.95 Y103.742 E45.0754
G1 X129.089 Y104.085 E45.11037
G1 X129.184 Y104.427 E45.14392
G1 X129.201 Y104.781 E45.17741
G1 X129.108 Y105.219 E45.21972
G1 X128.542 Y106.762 E45.37504
G1 X128.279 Y120.722 E46.69449
G1 X128.232 Y121.073 E46.72795
G1 X128.108 Y121.405 E46.76145
G1 X127.913 Y121.701 E46.79494
G1 X127.641 Y121.958 E46.8303
G1 X127.472 Y122.083 E46.85017
G1 X127.165 Y122.261 E46.8837
G1 X126.826 Y122.365 E46.91721
G1 X126.523 Y122.392 E46.94596
G1 X125.866 Y122.387 E47.00805
G1 X125.533 Y122.349 E47.03972
G1 X124.814 Y122.188 E47.10935
G1 X122.237 Y122.182 E47.35288
G1 X122.192 Y122.181 E47.35713
G1 X95.692 Y121.376 E49.86254
G1 X95.341 Y121.326 E49.89604
G1 X95.011 Y121.198 E49.92949
G1 X94.816 Y121.078 E49.95113
G1 X94.573 Y120.902 E49.97948
G1 X94.311 Y120.663 E50.01299
G1 X94.11 Y120.371 E50.04649
G1 X93.963 Y119.982 E50.08579
G1 X93.899 Y119.706 E50.11256
G1 X93.858 Y119.312 E50.15
G1 X94.157 Y107.061 E51.30806
G1 X94.166 Y106.934 E51.32009
G1 X94.22 Y106.422 E51.36875
G1 X94.146 Y105.535 E51.45286
G1 X94.145 Y105.293 E51.47573
G1 X94.228 Y104.114 E51.58742
G1 X94.292 Y103.766 E51.62086
G1 X94.362 Y103.58 E51.63964
G1 X94.458 Y103.366 E51.6618
G1 X94.638 Y103.061 E51.69527
G0 F4500 X94.94 Y103.243
G1 F1800 X95.166 Y103.027 E51.72481
G1 X95.531 Y102.841 E51.76353
G1 X95.807 Y102.755 E51.79084
G1 X96.191 Y102.7 E51.8275
G1 X126.479 Y103.189 E54.69009
G1 X126.673 Y103.107 E54.70999
G1 X126.974 Y103.024 E54.7395
G1 X127.287 Y103.019 E54.76908
G1 X127.487 Y103.059 E54.78836
G1 X127.828 Y103.157 E54.82189
G1 X128.115 Y103.281 E54.85143
G1 X128.361 Y103.473 E54.88092
G1 X128.551 Y103.721 E54.91044
G1 X128.625 Y103.874 E54.9265
G1 X128.764 Y104.217 E54.96148
G1 X128.844 Y104.519 E54.991
G1 X128.844 Y104.831 E55.02049
G1 X128.779 Y105.099 E55.04655
G1 X128.193 Y106.696 E55.2073
G1 X127.929 Y120.715 E56.53233
G1 X127.883 Y121.024 E56.56185
G1 X127.761 Y121.312 E56.59141
G1 X127.57 Y121.559 E56.62092
G1 X127.432 Y121.677 E56.63808
G1 X127.263 Y121.802 E56.65794
G1 X126.991 Y121.954 E56.68739
G1 X126.688 Y122.032 E56.71695
G1 X126.526 Y122.042 E56.73229
G1 X125.869 Y122.037 E56.79438
G1 X125.61 Y122.007 E56.81902
G1 X124.855 Y121.838 E56.89213
G1 X122.237 Y121.832 E57.13953
G1 X122.203 Y121.831 E57.14275
G1 X95.703 Y121.026 E59.64815
G1 X95.394 Y120.977 E59.67772
G1 X95.021 Y120.794 E59.71698
G1 X94.778 Y120.618 E59.74533
G1 X94.551 Y120.404 E59.77482
G1 X94.385 Y120.139 E59.80437
G1 X94.304 Y119.903 E59.82794
G1 X94.24 Y119.627 E59.85472
G1 X94.208 Y119.32 E59.88389
G1 X94.507 Y107.069 E61.04195
G1 X94.514 Y106.971 E61.05124
G1 X94.572 Y106.424 E61.10322
G1 X94.495 Y105.506 E61.19027
G1 X94.494 Y105.318 E61.20804
G1 X94.577 Y104.139 E61.31973
G1 X94.681 Y103.724 E61.36016
G1 X94.777 Y103.51 E61.38233
G1 X94.94 Y103.243 E61.41189
G0 F4500 X95.24 Y103.431
G1 F1800 X95.442 Y103.262 E61.43678
G1 X95.635 Y103.176 E61.45674
G1 X95.911 Y103.09 E61.48406
G1 X96.185 Y103.05 E61.51023
G1 X126.548 Y103.54 E64.37991
G1 X126.809 Y103.43 E64.40667
G1 X127.065 Y103.365 E64.43163
G1 X127.391 Y103.395 E64.46257
G1 X127.732 Y103.493 E64.4961
G1 X127.971 Y103.603 E64.52096
G1 X128.167 Y103.78 E64.54592
G1 X128.301 Y104.005 E64.57066
G1 X128.44 Y104.348 E64.60564
G1 X128.501 Y104.605 E64.6306
G1 X128.45 Y104.978 E64.66618
G1 X127.844 Y106.629 E64.83237
G1 X127.579 Y120.708 E66.16308
G1 X127.534 Y120.968 E66.18801
G1 X127.414 Y121.203 E66.21295
G1 X127.224 Y121.395 E66.23847
G1 X127.055 Y121.52 E66.25834
G1 X126.822 Y121.644 E66.28328
G1 X126.528 Y121.692 E66.31143
G1 X125.871 Y121.687 E66.37352
G1 X125.686 Y121.666 E66.39111
G1 X124.892 Y121.488 E66.46801
G1 X122.238 Y121.482 E66.71881
G1 X122.213 Y121.482 E66.72117
G1 X95.713 Y120.677 E69.22658
G1 X95.454 Y120.629 E69.25147
G1 X95.227 Y120.511 E69.27565
G1 X94.984 Y120.335 E69.304
G1 X94.796 Y120.149 E69.32899
G1 X94.645 Y119.824 E69.36286
G1 X94.581 Y119.548 E69.38963
G1 X94.558 Y119.329 E69.41044
G1 X94.857 Y107.078 E70.56851
G1 X94.862 Y107.007 E70.57523
G1 X94.923 Y106.426 E70.63044
G1 X94.844 Y105.477 E70.72043
G1 X94.843 Y105.343 E70.73309
G1 X94.926 Y104.164 E70.84478
G1 X95.001 Y103.867 E70.87373
G1 X95.097 Y103.653 E70.8959
G1 X95.24 Y103.431 E70.92085
G0 F4500 X95.534 Y103.63
G1 F1800 X95.739 Y103.51 E70.9433
G1 X96.015 Y103.424 E70.97062
G1 X96.179 Y103.4 E70.98628
G1 X126.615 Y103.891 E73.86286
G1 X126.945 Y103.752 E73.8967
G1 X127.145 Y103.711 E73.91599
G1 X127.294 Y103.731 E73.9302
G1 X127.635 Y103.829 E73.96372
G1 X127.816 Y103.923 E73.983
G1 X127.977 Y104.137 E74.00831
G1 X128.116 Y104.48 E74.04328
G1 X128.154 Y104.68 E74.06252
G1 X128.122 Y104.858 E74.07961
G1 X127.495 Y106.566 E74.25155
G1 X127.229 Y120.702 E75.58763
G1 X127.186 Y120.901 E75.60687
G1 X127.016 Y121.114 E75.63263
G1 X126.847 Y121.239 E75.65249
G1 X126.663 Y121.326 E75.67173
G1 X126.531 Y121.342 E75.68429
G1 X125.874 Y121.337 E75.74638
G1 X125.763 Y121.324 E75.75694
G1 X124.933 Y121.138 E75.83732
G1 X122.239 Y121.132 E76.0919
G1 X122.224 Y121.132 E76.09332
G1 X95.724 Y120.327 E78.59873
G1 X95.525 Y120.281 E78.61803
G1 X95.432 Y120.227 E78.62819
G1 X95.189 Y120.051 E78.65654
G1 X95.05 Y119.902 E78.6758
G1 X94.986 Y119.745 E78.69182
G1 X94.922 Y119.469 E78.7186
G1 X94.908 Y119.337 E78.73114
G1 X95.207 Y107.086 E79.8892
G1 X95.21 Y107.044 E79.89318
G1 X95.275 Y106.429 E79.95163
G1 X95.193 Y105.448 E80.04465
G1 X95.192 Y105.367 E80.05231
G1 X95.275 Y104.188 E80.164
G1 X95.32 Y104.01 E80.18135
G1 X95.416 Y103.796 E80.20351
G1 X95.534 Y103.63 E80.22276
G0 F4500 X95.735 Y103.939
G1 F1800 X95.843 Y103.844 E80.23635
G1 X96.119 Y103.758 E80.26367
G1 X96.174 Y103.75 E80.26892
G1 X126.684 Y104.242 E83.15249
G1 X127.081 Y104.075 E83.19319
G1 X127.197 Y104.068 E83.20418
G1 X127.538 Y104.166 E83.23771
G1 X127.652 Y104.268 E83.25216
G1 X127.791 Y104.611 E83.28714
G1 X127.793 Y104.737 E83.29904
G1 X127.146 Y106.499 E83.47642
G1 X126.879 Y120.695 E84.81818
G1 X126.808 Y120.833 E84.83285
G1 X126.639 Y120.958 E84.85271
G1 X126.534 Y120.992 E84.86314
G1 X125.877 Y120.987 E84.92523
G1 X125.84 Y120.983 E84.92875
G1 X124.971 Y120.788 E85.01291
G1 X122.24 Y120.782 E85.27099
G1 X122.235 Y120.782 E85.27146
G1 X95.735 Y119.977 E87.77687
G1 X95.637 Y119.944 E87.78664
G1 X95.394 Y119.768 E87.81499
G1 X95.327 Y119.666 E87.82653
G1 X95.263 Y119.39 E87.8533
G1 X95.258 Y119.346 E87.85749
G1 X95.557 Y107.095 E89.01555
G1 X95.558 Y107.081 E89.01688
G1 X95.626 Y106.432 E89.07854
G1 X95.542 Y105.419 E89.1746
G1 X95.541 Y105.392 E89.17715
G1 X95.624 Y104.213 E89.28884
G1 X95.639 Y104.153 E89.29469
G1 X95.735 Y103.939 E89.31685
G10
G0 F4500 X96.266 Y104.909
G0 X100.163 Y114.767
G0 X100.169 Y115.475
G0 X99.753 Y115.392
;TYPE:WALL-OUTER
G11
G1 F1800 X99.818 Y115.066 E89.34827
G1 X99.805 Y114.863 E89.36749
G1 X99.714 Y114.68 E89.3868
G1 X99.655 Y114.589 E89.39705
G1 X99.595 Y114.529 E89.40507
G1 X99.353 Y114.4 E89.43099
G1 X99.251 Y114.387 E89.4407
G1 X99.086 Y114.396 E89.45632
G1 X98.91 Y114.433 E89.47331
G1 X98.791 Y114.484 E89.48555
G1 X98.577 Y114.684 E89.51323
G1 X98.485 Y114.96 E89.54072
G1 X98.497 Y115.19 E89.56249
G1 X98.529 Y115.319 E89.57505
G1 X98.696 Y115.553 E89.60221
G1 X98.838 Y115.651 E89.61852
G1 X99.045 Y115.72 E89.63914
G1 X99.28 Y115.711 E89.66136
G1 X99.397 Y115.687 E89.67265
G1 X99.506 Y115.621 E89.68469
G1 X99.634 Y115.522 E89.69998
G1 X99.753 Y115.392 E89.71664
G0 F4500 X99.792 Y115.196
G0 X100.208 Y115.279
G0 X126.983 Y104.925
G0 X126.85 Y104.599
