;FLAVOR:UltiGCode
;TIME:2304
;MATERIAL:3516
;MATERIAL2:0
;NOZZLE_DIAMETER:0.4
;Generated with Cura_SteamEngine 3.2.1
M82 ;absolute extrusion mode

;LAYER_COUNT:30
;LAYER:0
M107
G0 F4500 X110.892 Y97.275 Z0.27
;TYPE:SUPPORT
G1 F1800 X111.659 Y97.275 E0.07248
G1 X111.659 Y100.525 E0.37961
G1 X110.891 Y100.525 E0.45218
G1 X110.892 Y97.275 E0.75931
G0 F4500 X111.032 Y97.986
G1 F1800 X111.519 Y97.986 E0.80533
G0 F4500 X111.519 Y100.319
G1 F1800 X111.032 Y100.319 E0.85135
G10
G0 F4500 X111.213 Y100.74
G0 X111.229 Y100.78
G0 X113.015 Y104.949
G0 X113.032 Y104.989
G0 X113.125 Y105.203
G11
G1 F1800 X113.125 Y105.99 E0.92572
G1 X113.042 Y106.073 E0.93681
G1 X113.041 Y105.287 E1.01109
G1 X113.125 Y105.203 E1.02232
G10
G0 F4500 X112.86 Y106.707
G0 X106.712 Y112.858
G0 X106.074 Y113.041
G11
G1 F1800 X105.99 Y113.125 E1.03354
G1 X105.203 Y113.125 E1.10792
G1 X105.286 Y113.042 E1.11901
G1 X106.074 Y113.041 E1.19347
G10
G0 F4500 X105.222 Y112.828
G0 X105.159 Y112.813
G0 X100.783 Y111.723
G0 X100.739 Y111.712
G0 X100.525 Y111.659
G11
G1 F1800 X97.275 Y111.659 E1.5006
G1 X97.275 Y110.891 E1.57317
G1 X100.525 Y110.892 E1.8803
G1 X100.525 Y111.659 E1.95278
G0 F4500 X100.319 Y111.519
G1 F1800 X100.319 Y111.032 E1.9988
G0 F4500 X97.986 Y111.032
G1 F1800 X97.986 Y111.519 E2.04482
G10
G0 F4500 X100.132 Y113.341
G0 X100.165 Y113.369
G0 X109.625 Y121.399
G0 X109.658 Y121.427
G0 X110.892 Y122.475
G11
G1 F1800 X111.659 Y122.475 E2.11731
G1 X111.659 Y125.725 E2.42443
G1 X110.891 Y125.725 E2.49701
G1 X110.892 Y122.475 E2.80413
G0 F4500 X111.031 Y123.649
G1 F1800 X111.518 Y123.649 E2.85015
G10
G0 F4500 X112.788 Y122.257
G0 X112.818 Y122.225
G0 X122.228 Y111.928
G0 X122.258 Y111.896
G0 X122.475 Y111.659
G11
G1 F1800 X122.475 Y110.891 E2.92273
G1 X125.725 Y110.892 E3.22985
G1 X125.725 Y111.659 E3.30234
G1 X122.475 Y111.659 E3.60946
G0 F4500 X123.649 Y111.519
G1 F1800 X123.649 Y111.032 E3.65548
G10
G0 F4500 X122.258 Y110.99
G0 X122.214 Y110.99
G0 X115.859 Y110.805
G0 X115.783 Y110.122
G0 X107.217 Y110.122
G0 X107.139 Y110.552
G0 X101.07 Y110.376
G0 X100.708 Y110.652
G0 X96.582 Y110.141
G0 X93.259 Y110.15
G0 X92.055 Y111.032
G0 X92.005 Y111.596
G0 X92.4 Y111.991
;TYPE:WALL-OUTER
G11
G1 F1800 X91.625 Y111.992 E3.72872
G1 X91.45 Y111.992 E3.74526
G1 X91.45 Y111.817 E3.75596
G1 X91.45 Y110.481 E3.88221
G1 X92.4 Y110.481 E3.97199
G1 X92.4 Y111.991 E4.11468
G0 F4500 X92.2 Y111.991
G0 X92.075 Y111.666
;TYPE:WALL-INNER
G1 F1800 X91.775 Y111.667 E4.14303
G1 X91.775 Y110.806 E4.2244
G1 X92.075 Y110.806 E4.25275
G1 X92.075 Y111.666 E4.3224
G10
G0 F4500 X92.005 Y111.596
G0 X92.055 Y111.403
G0 X93.82 Y111.403
G0 X95.83 Y111.403
G0 X96.225 Y111.183
;TYPE:WALL-OUTER
G11
G1 F1800 X96.225 Y112.519 E4.44865
G1 X93.475 Y112.519 E4.70853
G1 X93.475 Y111.009 E4.85122
G1 X96.05 Y111.008 E5.09456
G1 X96.225 Y111.008 E5.1111
G1 X96.225 Y111.183 E5.1218
G0 F4500 X96.225 Y111.383
G0 X95.9 Y111.508
;TYPE:WALL-INNER
G1 F1800 X95.9 Y112.194 E5.18663
G1 X93.8 Y112.194 E5.38508
G1 X93.8 Y111.334 E5.46635
G1 X95.725 Y111.333 E5.64826
G1 X95.9 Y111.333 E5.6648
G1 X95.9 Y111.508 E5.6755
G0 F4500 X95.56 Y111.673
;TYPE:SKIN
G1 F1800 X95.56 Y111.854 E5.6926
G1 X94.14 Y111.854 E5.82679
G1 X94.14 Y111.674 E5.8438
G1 X95.56 Y111.673 E5.97799
G0 F4500 X95.55 Y111.684
G10
G0 X95.88 Y111.403
G0 X97.096 Y111.403
G0 X100.704 Y111.403
G0 X101.92 Y111.403
G0 X103.93 Y111.403
G0 X104.325 Y111.183
;TYPE:WALL-OUTER
G11
G1 F1800 X104.325 Y112.519 E6.10424
G1 X101.575 Y112.519 E6.36412
G1 X101.575 Y111.009 E6.50681
G1 X104.15 Y111.008 E6.75015
G1 X104.325 Y111.008 E6.76669
G1 X104.325 Y111.183 E6.77739
G0 F4500 X104.325 Y111.383
G0 X104 Y111.508
;TYPE:WALL-INNER
G1 F1800 X104 Y112.194 E6.84222
G1 X101.9 Y112.194 E7.04067
G1 X101.9 Y111.334 E7.12194
G1 X103.825 Y111.333 E7.30385
G1 X104 Y111.333 E7.32039
G1 X104 Y111.508 E7.33109
G0 F4500 X103.66 Y111.673
;TYPE:SKIN
G1 F1800 X103.66 Y111.854 E7.3482
G1 X102.24 Y111.854 E7.48239
G1 X102.24 Y111.674 E7.4994
G1 X103.66 Y111.673 E7.63359
G0 F4500 X103.65 Y111.684
G10
G0 X103.98 Y111.596
G0 X105.745 Y111.596
G0 X105.955 Y111.596
G0 X106.35 Y111.991
;TYPE:WALL-OUTER
G11
G1 F1800 X105.575 Y111.992 E7.70682
G1 X105.4 Y111.992 E7.72336
G1 X105.4 Y111.817 E7.73406
G1 X105.4 Y110.481 E7.86031
G1 X106.35 Y110.481 E7.95009
G1 X106.35 Y111.991 E8.09278
G0 F4500 X106.15 Y111.991
G0 X106.025 Y111.666
;TYPE:WALL-INNER
G1 F1800 X105.725 Y111.667 E8.12113
G1 X105.725 Y110.806 E8.2025
G1 X106.025 Y110.806 E8.23085
G1 X106.025 Y111.666 E8.3005
G10
G0 F4500 X105.955 Y111.596
G0 X106.011 Y110.82
G0 X106.011 Y108.48
G0 X108.43 Y108.43
G0 X108.825 Y108.825
;TYPE:WALL-OUTER
G11
G1 F1800 X88.975 Y108.825 E10.17633
G1 X88.975 Y88.975 E12.05215
G1 X108.825 Y88.975 E13.92798
G1 X108.825 Y108.825 E15.8038
G0 F4500 X108.625 Y108.825
G0 X108.43 Y108.43
G0 X105.078 Y92.722
G0 X93.075 Y92.65
G0 X93.075 Y93.075
G1 F1800 X93.075 Y104.725 E16.90473
G1 X104.725 Y104.725 E18.00565
G1 X104.725 Y93.075 E19.10658
G1 X93.075 Y93.075 E20.2075
G0 F4500 X93.075 Y93.275
G0 X92.75 Y92.75
;TYPE:WALL-INNER
G1 F1800 X92.75 Y105.05 E21.36985
G1 X105.05 Y105.05 E22.5322
G1 X105.05 Y92.75 E23.69455
G1 X92.75 Y92.75 E24.8569
G0 F4500 X92.68 Y92.68
G0 X105.078 Y92.722
G0 X108.43 Y108.43
G0 X108.5 Y108.5
G1 F1800 X89.3 Y108.5 E26.6713
G1 X89.3 Y89.3 E28.4857
G1 X108.5 Y89.3 E30.3001
G1 X108.5 Y108.5 E32.1145
G0 F4500 X108.16 Y108.16
;TYPE:SKIN
G1 F1800 X89.64 Y108.16 E33.86464
G1 X89.64 Y89.64 E35.61478
G1 X108.16 Y89.64 E37.36492
G1 X108.16 Y108.16 E39.11506
G0 F4500 X105.39 Y105.39
G1 F1800 X105.39 Y92.41 E40.34167
G1 X92.41 Y92.41 E41.56828
G1 X92.41 Y105.39 E42.79489
G1 X105.39 Y105.39 E44.0215
G0 F4500 X108.001 Y90.182
G1 F1800 X107.616 Y89.797 E44.07296
G0 F4500 X107.121 Y89.797
G1 F1800 X108.001 Y90.677 E44.19056
G1 X108.062 Y90.738
G0 F4500 X108.001 Y91.172
G1 F1800 X106.626 Y89.797 E44.37432
G1 X106.565 Y89.736
G0 F4500 X106.131 Y89.797
G1 F1800 X108.001 Y91.667 E44.62423
G1 X108.062 Y91.728
G0 F4500 X108.001 Y92.162
G1 F1800 X105.636 Y89.797 E44.9403
G1 X105.575 Y89.736
G0 F4500 X105.141 Y89.797
G1 F1800 X108.001 Y92.657 E45.32252
G1 X108.062 Y92.718
G0 F4500 X108.001 Y93.152
G1 F1800 X104.646 Y89.797 E45.77089
G1 X104.585 Y89.736
G0 F4500 X104.151 Y89.797
G1 F1800 X108.001 Y93.647 E46.28542
G1 X108.062 Y93.708
G0 F4500 X108.001 Y94.142
G1 F1800 X103.656 Y89.797 E46.8661
G1 X103.595 Y89.736
G0 F4500 X103.161 Y89.797
G1 F1800 X108.001 Y94.637 E47.51293
G1 X108.062 Y94.698
G0 F4500 X108.001 Y95.132
G1 F1800 X105.547 Y92.677 E47.84096
G1 X105.486 Y92.616
G0 F4500 X105.547 Y93.172
G1 F1800 X108.001 Y95.626 E48.16892
G1 X108.062 Y95.687
G0 F4500 X108.001 Y96.121
G1 F1800 X105.547 Y93.667 E48.49688
G1 X105.486 Y93.606
G0 F4500 X105.547 Y94.162
G1 F1800 X108.001 Y96.616 E48.82484
G1 X108.062 Y96.677
G0 F4500 X108.001 Y97.111
G1 F1800 X105.547 Y94.657 E49.1528
G1 X105.486 Y94.596
G0 F4500 X105.547 Y95.152
G1 F1800 X108.001 Y97.606 E49.48076
G1 X108.062 Y97.667
G0 F4500 X108.001 Y98.101
G1 F1800 X105.547 Y95.647 E49.80872
G1 X105.486 Y95.586
G0 F4500 X105.547 Y96.142
G1 F1800 X108.001 Y98.596 E50.13668
G1 X108.062 Y98.657
G0 F4500 X108.001 Y99.091
G1 F1800 X105.547 Y96.637 E50.46464
G1 X105.486 Y96.576
G0 F4500 X105.547 Y97.132
G1 F1800 X108.001 Y99.586 E50.7926
G1 X108.062 Y99.647
G0 F4500 X108.001 Y100.081
G1 F1800 X105.547 Y97.627 E51.12056
G1 X105.486 Y97.566
G0 F4500 X105.547 Y98.122
G1 F1800 X108.001 Y100.576 E51.44852
G1 X108.062 Y100.637
G0 F4500 X108.001 Y101.071
G1 F1800 X105.547 Y98.617 E51.77648
G1 X105.486 Y98.556
G0 F4500 X105.547 Y99.112
G1 F1800 X108.001 Y101.566 E52.10444
G1 X108.062 Y101.627
G0 F4500 X108.001 Y102.061
G1 F1800 X105.547 Y99.607 E52.4324
G1 X105.486 Y99.546
G0 F4500 X105.547 Y100.102
G1 F1800 X108.001 Y102.556 E52.76036
G1 X108.062 Y102.617
G0 F4500 X108.001 Y103.051
G1 F1800 X105.547 Y100.597 E53.08832
G1 X105.486 Y100.536
G0 F4500 X105.547 Y101.092
G1 F1800 X108.001 Y103.546 E53.41628
G1 X108.062 Y103.607
G0 F4500 X108.001 Y104.041
G1 F1800 X105.547 Y101.587 E53.74424
G1 X105.486 Y101.526
G0 F4500 X105.547 Y102.082
G1 F1800 X108.001 Y104.536 E54.0722
G1 X108.062 Y104.597
G0 F4500 X108.001 Y105.031
G1 F1800 X105.547 Y102.577 E54.40017
G1 X105.486 Y102.516
G0 F4500 X105.547 Y103.072
G1 F1800 X108.001 Y105.526 E54.72813
G1 X108.062 Y105.587
G0 F4500 X108.001 Y106.021
G1 F1800 X105.547 Y103.567 E55.05609
G1 X105.486 Y103.506
G0 F4500 X105.547 Y104.062
G1 F1800 X108.001 Y106.516 E55.38405
G1 X108.062 Y106.577
G0 F4500 X108.001 Y107.011
G1 F1800 X105.547 Y104.557 E55.71201
G1 X105.486 Y104.496
G0 F4500 X105.547 Y105.052
G1 F1800 X108.001 Y107.506 E56.03997
G1 X108.062 Y107.567
G0 F4500 X108.001 Y108.001
G1 F1800 X105.547 Y105.547 E56.36793
G1 X105.486 Y105.486
G0 F4500 X105.052 Y105.547
G1 F1800 X107.506 Y108.001 E56.69589
G1 X107.567 Y108.062
G0 F4500 X107.011 Y108.001
G1 F1800 X104.557 Y105.547 E57.02385
G1 X104.496 Y105.486
G0 F4500 X104.062 Y105.547
G1 F1800 X106.516 Y108.001 E57.35181
G1 X106.577 Y108.062
G0 F4500 X106.021 Y108.001
G1 F1800 X103.567 Y105.547 E57.67977
G1 X103.506 Y105.486
G0 F4500 X103.072 Y105.547
G1 F1800 X105.526 Y108.001 E58.00773
G1 X105.587 Y108.062
G0 F4500 X105.031 Y108.001
G1 F1800 X102.577 Y105.547 E58.33569
G1 X102.516 Y105.486
G0 F4500 X102.082 Y105.547
G1 F1800 X104.536 Y108.001 E58.66365
G1 X104.597 Y108.062
G0 F4500 X104.041 Y108.001
G1 F1800 X101.587 Y105.547 E58.99161
G1 X101.526 Y105.486
G0 F4500 X101.092 Y105.547
G1 F1800 X103.546 Y108.001 E59.31957
G1 X103.607 Y108.062
G0 F4500 X103.051 Y108.001
G1 F1800 X100.597 Y105.547 E59.64753
G1 X100.536 Y105.486
G0 F4500 X100.102 Y105.547
G1 F1800 X102.556 Y108.001 E59.97549
G1 X102.617 Y108.062
G0 F4500 X102.061 Y108.001
G1 F1800 X99.608 Y105.547 E60.30339
G1 X99.547 Y105.486
G0 F4500 X99.113 Y105.547
G1 F1800 X101.566 Y108.001 E60.63128
G1 X101.627 Y108.062
G0 F4500 X101.071 Y108.001
G1 F1800 X98.618 Y105.547 E60.95917
G1 X98.557 Y105.486
G0 F4500 X98.123 Y105.547
G1 F1800 X100.576 Y108.001 E61.28707
G1 X100.637 Y108.062
G0 F4500 X100.081 Y108.001
G1 F1800 X97.628 Y105.547 E61.61496
G1 X97.567 Y105.486
G0 F4500 X97.133 Y105.547
G1 F1800 X99.586 Y108.001 E61.94285
G1 X99.647 Y108.062
G0 F4500 X99.091 Y108.001
G1 F1800 X96.638 Y105.547 E62.27075
G1 X96.577 Y105.486
G0 F4500 X96.143 Y105.547
G1 F1800 X98.596 Y108.001 E62.59864
G1 X98.657 Y108.062
G0 F4500 X98.101 Y108.001
G1 F1800 X95.648 Y105.547 E62.92653
G1 X95.587 Y105.486
G0 F4500 X95.153 Y105.547
G1 F1800 X97.606 Y108.001 E63.25443
G1 X97.667 Y108.062
G0 F4500 X97.111 Y108.001
G1 F1800 X94.658 Y105.547 E63.58232
G1 X94.597 Y105.486
G0 F4500 X94.163 Y105.547
G1 F1800 X96.616 Y108.001 E63.91021
G1 X96.677 Y108.062
G0 F4500 X96.121 Y108.001
G1 F1800 X93.668 Y105.547 E64.23811
G1 X93.607 Y105.486
G0 F4500 X93.173 Y105.547
G1 F1800 X95.626 Y108.001 E64.566
G1 X95.687 Y108.062
G0 F4500 X95.132 Y108.001
G1 F1800 X92.678 Y105.547 E64.89396
G1 X92.617 Y105.486
G0 F4500 X92.251 Y105.121
G1 F1800 X89.797 Y102.666 E65.22199
G1 X89.736 Y102.605
G0 F4500 X89.797 Y102.171
G1 F1800 X92.251 Y104.626 E65.55002
G1 X92.312 Y104.687
G0 F4500 X92.251 Y104.131
G1 F1800 X89.797 Y101.677 E65.87798
G1 X89.736 Y101.616
G0 F4500 X89.797 Y101.182
G1 F1800 X92.251 Y103.636 E66.20594
G1 X92.312 Y103.697
G0 F4500 X92.251 Y103.141
G1 F1800 X89.797 Y100.687 E66.5339
G1 X89.736 Y100.626
G0 F4500 X89.797 Y100.192
G1 F1800 X92.251 Y102.646 E66.86186
G1 X92.312 Y102.707
G0 F4500 X92.251 Y102.151
G1 F1800 X89.797 Y99.697 E67.18982
G1 X89.736 Y99.636
G0 F4500 X89.797 Y99.202
G1 F1800 X92.251 Y101.656 E67.51778
G1 X92.312 Y101.717
G0 F4500 X92.251 Y101.161
G1 F1800 X89.797 Y98.707 E67.84574
G1 X89.736 Y98.646
G0 F4500 X89.797 Y98.212
G1 F1800 X92.251 Y100.666 E68.1737
G1 X92.312 Y100.727
G0 F4500 X92.251 Y100.171
G1 F1800 X89.797 Y97.717 E68.50166
G1 X89.736 Y97.656
G0 F4500 X89.797 Y97.222
G1 F1800 X92.251 Y99.676 E68.82962
G1 X92.312 Y99.737
G0 F4500 X92.251 Y99.181
G1 F1800 X89.797 Y96.727 E69.15758
G1 X89.736 Y96.666
G0 F4500 X89.797 Y96.232
G1 F1800 X92.251 Y98.686 E69.48554
G1 X92.312 Y98.747
G0 F4500 X92.251 Y98.191
G1 F1800 X89.797 Y95.737 E69.8135
G1 X89.736 Y95.676
G0 F4500 X89.797 Y95.242
G1 F1800 X92.251 Y97.696 E70.14146
G1 X92.312 Y97.757
G0 F4500 X92.251 Y97.201
G1 F1800 X89.797 Y94.747 E70.46942
G1 X89.736 Y94.686
G0 F4500 X89.797 Y94.252
G1 F1800 X92.251 Y96.706 E70.79738
G1 X92.312 Y96.767
G0 F4500 X92.251 Y96.211
G1 F1800 X89.797 Y93.757 E71.12534
G1 X89.736 Y93.696
G0 F4500 X89.797 Y93.262
G1 F1800 X92.251 Y95.716 E71.4533
G1 X92.312 Y95.777
G0 F4500 X92.251 Y95.221
G1 F1800 X89.797 Y92.767 E71.78126
G1 X89.736 Y92.706
G0 F4500 X89.797 Y92.272
G1 F1800 X92.251 Y94.726 E72.10922
G1 X92.312 Y94.787
G0 F4500 X92.251 Y94.231
G1 F1800 X89.797 Y91.777 E72.43718
G1 X89.736 Y91.716
G0 F4500 X89.797 Y91.282
G1 F1800 X92.251 Y93.736 E72.76514
G1 X92.312 Y93.797
G0 F4500 X92.251 Y93.241
G1 F1800 X89.797 Y90.787 E73.0931
G1 X89.736 Y90.726
G0 F4500 X89.797 Y90.292
G1 F1800 X92.251 Y92.746 E73.42106
G1 X92.312 Y92.807
G0 F4500 X92.251 Y92.251
G1 F1800 X89.797 Y89.797 E73.74903
G1 X89.736 Y89.736
G0 F4500 X90.292 Y89.797
G1 F1800 X92.746 Y92.251 E74.07699
G1 X92.807 Y92.312
G0 F4500 X93.241 Y92.251
G1 F1800 X90.787 Y89.797 E74.40495
G1 X90.726 Y89.736
G0 F4500 X91.282 Y89.797
G1 F1800 X93.736 Y92.251 E74.73291
G1 X93.797 Y92.312
G0 F4500 X94.231 Y92.251
G1 F1800 X91.777 Y89.797 E75.06087
G1 X91.716 Y89.736
G0 F4500 X92.272 Y89.797
G1 F1800 X94.726 Y92.251 E75.38883
G1 X94.787 Y92.312
G0 F4500 X95.221 Y92.251
G1 F1800 X92.767 Y89.797 E75.71679
G1 X92.706 Y89.736
G0 F4500 X93.262 Y89.797
G1 F1800 X95.716 Y92.251 E76.04475
G1 X95.777 Y92.312
G0 F4500 X96.211 Y92.251
G1 F1800 X93.757 Y89.797 E76.37271
G1 X93.696 Y89.736
G0 F4500 X94.252 Y89.797
G1 F1800 X96.706 Y92.251 E76.70067
G1 X96.767 Y92.312
G0 F4500 X97.201 Y92.251
G1 F1800 X94.747 Y89.797 E77.02863
G1 X94.686 Y89.736
G0 F4500 X95.242 Y89.797
G1 F1800 X97.696 Y92.251 E77.35659
G1 X97.757 Y92.312
G0 F4500 X98.191 Y92.251
G1 F1800 X95.737 Y89.797 E77.68455
G1 X95.676 Y89.736
G0 F4500 X96.232 Y89.797
G1 F1800 X98.686 Y92.251 E78.01251
G1 X98.747 Y92.312
G0 F4500 X99.181 Y92.251
G1 F1800 X96.727 Y89.797 E78.34047
G1 X96.666 Y89.736
G0 F4500 X97.222 Y89.797
G1 F1800 X99.676 Y92.251 E78.66843
G1 X99.737 Y92.312
G0 F4500 X100.171 Y92.251
G1 F1800 X97.717 Y89.797 E78.99639
G1 X97.656 Y89.736
G0 F4500 X98.212 Y89.797
G1 F1800 X100.666 Y92.251 E79.32435
G1 X100.727 Y92.312
G0 F4500 X101.161 Y92.251
G1 F1800 X98.707 Y89.797 E79.65231
G1 X98.646 Y89.736
G0 F4500 X99.202 Y89.797
G1 F1800 X101.656 Y92.251 E79.98027
G1 X101.717 Y92.312
G0 F4500 X102.151 Y92.251
G1 F1800 X99.697 Y89.797 E80.30823
G1 X99.636 Y89.736
G0 F4500 X100.192 Y89.797
G1 F1800 X102.646 Y92.251 E80.63619
G1 X102.707 Y92.312
G0 F4500 X103.141 Y92.251
G1 F1800 X100.687 Y89.797 E80.96415
G1 X100.626 Y89.736
G0 F4500 X101.182 Y89.797
G1 F1800 X103.636 Y92.251 E81.29211
G1 X103.697 Y92.312
G0 F4500 X104.131 Y92.251
G1 F1800 X101.677 Y89.797 E81.62007
G1 X101.616 Y89.736
G0 F4500 X102.171 Y89.797
G1 F1800 X104.626 Y92.251 E81.9481
G1 X104.687 Y92.312
G0 F4500 X105.121 Y92.251
G1 F1800 X102.666 Y89.797 E82.27613
G1 X102.605 Y89.736
G0 F4500 X92.722 Y92.722
G0 X89.797 Y103.161
G1 F1800 X94.637 Y108.001 E82.92296
G1 X94.698 Y108.062
G0 F4500 X94.142 Y108.001
G1 F1800 X89.797 Y103.656 E83.50364
G1 X89.736 Y103.595
G0 F4500 X89.797 Y104.151
G1 F1800 X93.647 Y108.001 E84.01817
G1 X93.708 Y108.062
G0 F4500 X93.152 Y108.001
G1 F1800 X89.797 Y104.646 E84.46654
